X:434
T:Streets of Laredo
M:3/4
L:1/4
K:D
A | A>GF | GAG | F>ED | CA,>A, | 
D>CD | EFG | FED | E2A | 
A>GF | GAG | F>ED | CA,2 | 
D>DD | EFG | FCC | D2 |] 

